_site/assets/img/wordpress.svg

<svg width="56" height="56" viewBox="0 0 56 56" fill="none" xmlns="http://www.w3.org/2000/svg">
<circle cx="28" cy="28" r="24.5" fill="#028CB0"/>
<path d="M11.2969 28C11.2969 34.619 15.1469 40.32 20.7146 43.0298L12.7481 21.2033C11.7915 23.3415 11.297 25.6575 11.2969 28ZM28 44.7031C29.9398 44.7031 31.8056 44.3625 33.5529 43.7554L33.4344 43.5333L28.2962 29.466L23.2912 44.0219C24.7719 44.4662 26.3563 44.7031 28 44.7031ZM30.2952 20.1667L36.3367 38.1285L38.01 32.5608C38.7208 30.2508 39.2687 28.5923 39.2687 27.156C39.2687 25.0829 38.5283 23.6613 37.9063 22.5656C37.0475 21.1737 36.2627 20.0038 36.2627 18.6415C36.2627 17.1015 37.4177 15.68 39.0762 15.68H39.2835C36.2057 12.8546 32.178 11.29 28 11.2969C25.2336 11.2964 22.5106 11.9836 20.0757 13.2967C17.6408 14.6097 15.5706 16.5075 14.0512 18.8192L15.1173 18.8488C16.8646 18.8488 19.5596 18.6267 19.5596 18.6267C20.4777 18.5823 20.5813 19.9002 19.6781 20.0038C19.6781 20.0038 18.7748 20.1223 17.7531 20.1667L23.8538 38.2617L27.5113 27.304L24.9052 20.1667C24.3214 20.1345 23.7387 20.0851 23.1579 20.0187C22.2546 19.9594 22.3583 18.5823 23.2615 18.6267C23.2615 18.6267 26.0158 18.8488 27.6594 18.8488C29.4067 18.8488 32.1017 18.6267 32.1017 18.6267C33.005 18.5823 33.1235 19.9002 32.2202 20.0038C32.2202 20.0038 31.3169 20.1075 30.2952 20.1667ZM36.396 42.4375C38.9228 40.9683 41.0199 38.8616 42.4776 36.3281C43.9353 33.7946 44.7027 30.923 44.7031 28C44.7031 25.0977 43.9627 22.3731 42.6596 19.989C42.9242 22.6119 42.5271 25.2593 41.5046 27.689L36.396 42.4375ZM28 47.25C22.8946 47.25 17.9983 45.2219 14.3882 41.6118C10.7781 38.0017 8.75 33.1054 8.75 28C8.75 22.8946 10.7781 17.9983 14.3882 14.3882C17.9983 10.7781 22.8946 8.75 28 8.75C33.1054 8.75 38.0017 10.7781 41.6118 14.3882C45.2219 17.9983 47.25 22.8946 47.25 28C47.25 33.1054 45.2219 38.0017 41.6118 41.6118C38.0017 45.2219 33.1054 47.25 28 47.25Z" fill="white"/>
</svg>

<svg width="56" height="56" fill="none" xmlns="http://www.w3.org/2000/svg"><circle cx="28" cy="28" r="24.5" fill="#028CB0"/><path d="M11.297 28c0 6.619 3.85 12.32 9.418 15.03l-7.967-21.827A16.645 16.645 0 0011.297 28zM28 44.703c1.94 0 3.806-.34 5.553-.948l-.119-.222-5.138-14.067-5.005 14.556c1.48.444 3.065.681 4.709.681zm2.295-24.536l6.042 17.962 1.673-5.568c.71-2.31 1.259-3.969 1.259-5.405 0-2.073-.74-3.495-1.363-4.59-.858-1.392-1.643-2.562-1.643-3.924 0-1.54 1.155-2.962 2.813-2.962h.207A16.645 16.645 0 0028 11.297a16.688 16.688 0 00-13.949 7.522l1.066.03c1.748 0 4.443-.222 4.443-.222.918-.045 1.021 1.273.118 1.377 0 0-.903.118-1.925.163l6.1 18.095 3.658-10.958-2.606-7.137a29.862 29.862 0 01-1.747-.148c-.903-.06-.8-1.437.104-1.392 0 0 2.754.222 4.397.222 1.748 0 4.443-.222 4.443-.222.903-.045 1.022 1.273.118 1.377 0 0-.903.104-1.925.163zm6.101 22.27A16.703 16.703 0 0044.703 28c0-2.902-.74-5.627-2.043-8.011a15.77 15.77 0 01-1.155 7.7l-5.109 14.748zM28 47.25a19.25 19.25 0 110-38.5 19.25 19.25 0 010 38.5z" fill="#fff"/></svg>
